x-pack/solutions/observability/plugins/observability_onboarding/public/assets/docker.svg

<svg width="16" height="16" viewBox="0 0 16 16" fill="none" xmlns="http://www.w3.org/2000/svg">
<g clip-path="url(#clip0_3442_52308)">
<path fill-rule="evenodd" clip-rule="evenodd" d="M9.04961 7.554H10.7016V6.0675H9.05011V7.554H9.04961ZM7.09711 7.554H8.74911V6.0675H7.09711V7.554ZM5.14461 7.554H6.79661V6.0675H5.14511V7.554H5.14461ZM3.19211 7.554H4.84511V6.0675H3.19211V7.554V7.554ZM1.24011 7.554H2.89211V6.0675H1.24011V7.554V7.554ZM3.19211 5.77H4.84511V4.284H3.19211V5.77V5.77ZM5.14461 5.77H6.79661V4.284H5.14511V5.77H5.14461ZM7.09711 5.77H8.74911V4.284H7.09711V5.77V5.77ZM7.09711 3.9865H8.74911V2.5H7.09711V3.9865V3.9865ZM15.6666 6.6875C15.3056 6.4485 14.4766 6.361 13.8386 6.48C13.7566 5.885 13.4216 5.3695 12.8126 4.9035L12.4626 4.672L12.2286 5.019C11.9296 5.4655 11.7801 6.084 11.8286 6.6775C11.8511 6.8865 11.9201 7.2595 12.1371 7.5875C11.9206 7.703 11.4921 7.862 10.9271 7.8515H0.062113L0.040613 7.975C-0.061387 8.5715 -0.059387 10.432 1.16061 11.862C2.08911 12.949 3.48011 13.5 5.29511 13.5C9.23011 13.5 12.1416 11.707 13.5051 8.448C14.0416 8.458 15.1956 8.451 15.7886 7.3295C15.8041 7.304 15.8396 7.2365 15.9436 7.0245L16.0001 6.9075L15.6666 6.6875V6.6875Z" fill="#136EA3"/>
</g>
<defs>
<clipPath id="clip0_3442_52308">
<rect width="16" height="16" fill="white"/>
</clipPath>
</defs>
</svg>

<svg xmlns="http://www.w3.org/2000/svg" width="16" height="16" fill="none"><g clip-path="url(#a)"><path fill="#136EA3" fill-rule="evenodd" d="M9.05 7.554h1.652V6.067H9.05zm-1.953 0H8.75V6.067H7.097zm-1.952 0h1.652V6.067H5.145zm-1.953 0h1.653V6.067H3.192zm-1.952 0h1.652V6.067H1.24zM3.192 5.77h1.653V4.284H3.192zm1.953 0h1.652V4.284H5.145zm1.952 0H8.75V4.284H7.097zm0-1.783H8.75V2.5H7.097zm8.57 2.7c-.361-.239-1.19-.326-1.828-.207-.082-.595-.417-1.11-1.026-1.577l-.35-.231-.234.347c-.3.446-.449 1.065-.4 1.659.022.208.091.582.308.91a2.54 2.54 0 0 1-1.21.263H.062l-.021.124c-.102.597-.1 2.457 1.12 3.887.928 1.087 2.32 1.638 4.134 1.638 3.935 0 6.847-1.793 8.21-5.052.537.01 1.69.003 2.284-1.118.015-.026.05-.093.155-.306L16 6.908z" clip-rule="evenodd"/></g><defs><clipPath id="a"><path fill="#fff" d="M0 0h16v16H0z"/></clipPath></defs></svg>
